src/food-drink/food-prepared/1F956.svg

<svg id="emoji" viewBox="0 0 72 72" xmlns="http://www.w3.org/2000/svg">
  <g id="grid">
    <path fill="#b3b3b3" d="M68,4V68H4V4H68m4-4H0V72H72V0Z"/>
    <path fill="none" stroke="#00a5ff" stroke-miterlimit="10" stroke-width="0.1" d="M12.923,10.9583H59.0769A1.9231,1.9231,0,0,1,61,12.8814V59.0352a1.9231,1.9231,0,0,1-1.9231,1.9231H12.9231A1.9231,1.9231,0,0,1,11,59.0352V12.8813A1.923,1.923,0,0,1,12.923,10.9583Z"/>
    <rect x="16" y="4" rx="2.2537" width="40" height="64" fill="none" stroke="#00a5ff" stroke-miterlimit="10" stroke-width="0.1"/>
    <rect x="16" y="4" rx="2.2537" width="40" height="64" transform="translate(72) rotate(90)" fill="none" stroke="#00a5ff" stroke-miterlimit="10" stroke-width="0.1"/>
    <circle cx="36" cy="36" r="29" fill="none" stroke="#00a5ff" stroke-miterlimit="10" stroke-width="0.1"/>
  </g>
  <g id="color">
    <path fill="#f4aa41" stroke="none" d="M11.9307,45.9297c-3.9043,3.9043-3.9063,10.2363,0,14.1416c3.9043,3.9053,10.2382,3.9053,14.1425,0.001 l33.9991-34.001c3.9043-3.9063,3.9043-10.2373,0-14.1416c-3.9063-3.9063-10.2373-3.9063-14.1426-0.001L11.9307,45.9297z"/>
  </g>
  <g id="hair"/>
  <g id="skin"/>
  <g id="skin-shadow"/>
  <g id="line">
    <path fill="none" stroke="#000000" stroke-linecap="round" stroke-linejoin="round" stroke-miterlimit="10" stroke-width="2" d="M11.9307,45.9297c-3.9043,3.9043-3.9063,10.2363,0,14.1416c3.9043,3.9053,10.2382,3.9053,14.1425,0.001l33.9991-34.001 c3.9043-3.9063,3.9043-10.2373,0-14.1416c-3.9063-3.9063-10.2373-3.9063-14.1426-0.001L11.9307,45.9297z"/>
    <path fill="none" stroke="#000000" stroke-linecap="round" stroke-linejoin="round" stroke-miterlimit="10" stroke-width="2" d="M45.9297,11.9287c-3.9043,3.9053-3.9043,10.2373,0,14.1426"/>
    <path fill="none" stroke="#000000" stroke-linecap="round" stroke-linejoin="round" stroke-miterlimit="10" stroke-width="2" d="M37.4297,20.4287c-3.9043,3.9053-3.9043,10.2373,0,14.1426"/>
    <path fill="none" stroke="#000000" stroke-linecap="round" stroke-linejoin="round" stroke-miterlimit="10" stroke-width="2" d="M28.9297,28.9287c-3.9033,3.9063-3.9033,10.2383,0,14.1426"/>
    <path fill="none" stroke="#000000" stroke-linecap="round" stroke-linejoin="round" stroke-miterlimit="10" stroke-width="2" d="M20.4307,37.4297c-3.9043,3.9053-3.9043,10.2373,0,14.1426"/>
  </g>
</svg>

<svg viewBox="0 0 72 72" xmlns="http://www.w3.org/2000/svg"><path fill="#b3b3b3" d="M68 4v64H4V4h64m4-4H0v72h72V0z"/><path fill="none" stroke="#00a5ff" stroke-miterlimit="10" stroke-width=".1" d="M12.923 10.958h46.154A1.923 1.923 0 0161 12.881v46.154a1.923 1.923 0 01-1.923 1.923H12.923A1.923 1.923 0 0111 59.035V12.881a1.923 1.923 0 011.923-1.923z"/><rect x="16" y="4" rx="2.254" width="40" height="64" fill="none" stroke="#00a5ff" stroke-miterlimit="10" stroke-width=".1"/><rect x="16" y="4" rx="2.254" width="40" height="64" transform="rotate(90 36 36)" fill="none" stroke="#00a5ff" stroke-miterlimit="10" stroke-width=".1"/><circle cx="36" cy="36" r="29" fill="none" stroke="#00a5ff" stroke-miterlimit="10" stroke-width=".1"/><path d="M11.93 45.93c-3.904 3.904-3.906 10.236 0 14.141 3.905 3.906 10.239 3.906 14.143.001l34-34c3.904-3.907 3.904-10.238 0-14.142-3.907-3.907-10.238-3.907-14.143-.001l-34 34zm34-34.001c-3.905 3.905-3.905 10.237 0 14.142m-8.5-5.642c-3.905 3.905-3.905 10.237 0 14.142m-8.5-5.642c-3.904 3.906-3.904 10.238 0 14.142m-8.5-5.641c-3.904 3.905-3.904 10.237 0 14.142" stroke-linecap="round" stroke-miterlimit="10" stroke-width="6" stroke="#fff" fill="none" stroke-linejoin="round"/><path fill="#f4aa41" d="M11.93 45.93c-3.904 3.904-3.906 10.236 0 14.141 3.905 3.906 10.239 3.906 14.143.001l34-34c3.904-3.907 3.904-10.238 0-14.142-3.907-3.907-10.238-3.907-14.143-.001l-34 34z"/><path d="M11.93 45.93c-3.904 3.904-3.906 10.236 0 14.141 3.905 3.906 10.239 3.906 14.143.001l34-34c3.904-3.907 3.904-10.238 0-14.142-3.907-3.907-10.238-3.907-14.143-.001l-34 34zm34-34.001c-3.905 3.905-3.905 10.237 0 14.142m-8.5-5.642c-3.905 3.905-3.905 10.237 0 14.142m-8.5-5.642c-3.904 3.906-3.904 10.238 0 14.142m-8.5-5.641c-3.904 3.905-3.904 10.237 0 14.142" fill="none" stroke="#000" stroke-linecap="round" stroke-linejoin="round" stroke-miterlimit="10" stroke-width="2"/></svg>
